X:31
T:General Rutozoff’s Waltz. CJF.031
R:Waltz
S:C.J.Fox MS, 1829/33, Beverley,E.Yorks.
B:Kidson Coll.Mitchell Lib.M1805
O:England
A:East Yorkshire
Z:vmp.P J Headford 2000 & 2008
M:3/8
L:1/16
Q:1/8=120
K:D
” Alegretto”FA|\
.d2(dAdf)|.a2(afdf)|.e2(eg)(ce)|A4(Bc)|!
d2(defd)|B2(efge)|(dc)(BA)(Bc)|d2z2:|!
fe|e2″p”e2e2|ef^gae2|e2e2e2|e’4c’a|!
” f”e2e2e2|(ef^gaec)|(BdfeB^G)A2z2 FA|!
.d2″p”(dAdf)|.a2(afdf)|.e2(eg)(ce)|A4Bc|!
.d2″ f”(defd)|B2(efge)|(dc)(BA)(Bc)|d4z2|]

